close_button.svg

<?xml version="1.0" encoding="UTF-8" standalone="no"?>
<svg
   xmlns:dc="http://purl.org/dc/elements/1.1/"
   xmlns:cc="http://creativecommons.org/ns#"
   xmlns:rdf="http://www.w3.org/1999/02/22-rdf-syntax-ns#"
   xmlns:svg="http://www.w3.org/2000/svg"
   xmlns="http://www.w3.org/2000/svg"
   xmlns:sodipodi="http://sodipodi.sourceforge.net/DTD/sodipodi-0.dtd"
   xmlns:inkscape="http://www.inkscape.org/namespaces/inkscape"
   width="1.9901123in"
   height="1.9901123in"
   viewBox="0 0 143.28809 143.28809"
   version="1.1"
   id="svg8"
   inkscape:version="1.0.1 (3bc2e813f5, 2020-09-07)"
   sodipodi:docname="close_button.svg">
  <defs
     id="defs2" />
  <sodipodi:namedview
     id="base"
     pagecolor="#ffffff"
     bordercolor="#666666"
     borderopacity="1.0"
     inkscape:pageopacity="0.0"
     inkscape:pageshadow="2"
     inkscape:zoom="0.67521728"
     inkscape:cx="239.19088"
     inkscape:cy="179.13421"
     inkscape:document-units="in"
     inkscape:current-layer="layer1"
     inkscape:document-rotation="0"
     showgrid="false"
     units="in"
     inkscape:window-width="1267"
     inkscape:window-height="954"
     inkscape:window-x="499"
     inkscape:window-y="38"
     inkscape:window-maximized="0"
     fit-margin-top="0"
     fit-margin-left="0"
     fit-margin-right="0"
     fit-margin-bottom="0" />
  <metadata
     id="metadata5">
    <rdf:RDF>
      <cc:Work
         rdf:about="">
        <dc:format>image/svg+xml</dc:format>
        <dc:type
           rdf:resource="http://purl.org/dc/dcmitype/StillImage" />
        <dc:title></dc:title>
      </cc:Work>
    </rdf:RDF>
  </metadata>
  <g
     inkscape:label="Layer 1"
     inkscape:groupmode="layer"
     id="layer1"
     transform="translate(-163.28027,-199.93506)">
    <path
       id="rect43"
       style="fill:#000000;fill-opacity:0.465863;stroke-width:0.96"
       d="m 233.56445,266.58008 c -8.78412,0 -15.85742,7.0733 -15.85742,15.85742 v 159.33789 c 0,8.78411 7.0733,15.85547 15.85742,15.85547 h 159.33789 c 8.78411,0 15.85547,-7.07136 15.85547,-15.85547 V 282.4375 c 0,-8.78412 -7.07136,-15.85742 -15.85547,-15.85742 z m 21.40039,24.93164 h 22.24805 l 25.61914,36.21094 c 5.32908,7.51207 9.11608,13.29097 11.36328,17.33593 3.14608,-5.13646 6.87009,-10.49809 11.17188,-16.08398 l 28.41211,-37.46289 h 20.32031 L 324.5,358.06055 l 53.45117,74.63867 h -23.11328 l -35.53711,-50.36914 c -1.99037,-2.88926 -4.04527,-6.0346 -6.16406,-9.4375 -3.14608,5.13645 -5.39387,8.66757 -6.74219,10.59375 l -35.44141,49.21289 h -22.43945 l 54.60547,-73.58008 z"
       transform="scale(0.75)" />
  </g>
</svg>

<?xml version="1.0" encoding="UTF-8" standalone="no"?>
<svg
   xmlns:dc="http://purl.org/dc/elements/1.1/"
   xmlns:cc="http://creativecommons.org/ns#"
   xmlns:rdf="http://www.w3.org/1999/02/22-rdf-syntax-ns#"
   xmlns:svg="http://www.w3.org/2000/svg"
   xmlns="http://www.w3.org/2000/svg"
   xmlns:sodipodi="http://sodipodi.sourceforge.net/DTD/sodipodi-0.dtd"
   xmlns:inkscape="http://www.inkscape.org/namespaces/inkscape"
   width="11.5in"
   height="11.5in"
   viewBox="0 0 828 828"
   version="1.1"
   id="svg8"
   inkscape:version="1.0.1 (3bc2e813f5, 2020-09-07)"
   sodipodi:docname="close_button.svg">
  <defs
     id="defs2" />
  <sodipodi:namedview
     id="base"
     pagecolor="#ffffff"
     bordercolor="#666666"
     borderopacity="1.0"
     inkscape:pageopacity="0.0"
     inkscape:pageshadow="2"
     inkscape:zoom="0.67521728"
     inkscape:cx="456.89791"
     inkscape:cy="445.71429"
     inkscape:document-units="in"
     inkscape:current-layer="layer1"
     inkscape:document-rotation="0"
     showgrid="false"
     units="in"
     inkscape:window-width="1267"
     inkscape:window-height="954"
     inkscape:window-x="499"
     inkscape:window-y="38"
     inkscape:window-maximized="0" />
  <metadata
     id="metadata5">
    <rdf:RDF>
      <cc:Work
         rdf:about="">
        <dc:format>image/svg+xml</dc:format>
        <dc:type
           rdf:resource="http://purl.org/dc/dcmitype/StillImage" />
        <dc:title></dc:title>
      </cc:Work>
    </rdf:RDF>
  </metadata>
  <g
     inkscape:label="Layer 1"
     inkscape:groupmode="layer"
     id="layer1">
    <path
       id="rect43"
       style="fill:#000000;stroke-width:0.96;fill-opacity:0.46586347"
       d="M 233.56445 266.58008 C 224.78033 266.58008 217.70703 273.65338 217.70703 282.4375 L 217.70703 441.77539 C 217.70703 450.5595 224.78033 457.63086 233.56445 457.63086 L 392.90234 457.63086 C 401.68645 457.63086 408.75781 450.5595 408.75781 441.77539 L 408.75781 282.4375 C 408.75781 273.65338 401.68645 266.58008 392.90234 266.58008 L 233.56445 266.58008 z M 254.96484 291.51172 L 277.21289 291.51172 L 302.83203 327.72266 C 308.16111 335.23473 311.94811 341.01363 314.19531 345.05859 C 317.34139 339.92213 321.0654 334.5605 325.36719 328.97461 L 353.7793 291.51172 L 374.09961 291.51172 L 324.5 358.06055 L 377.95117 432.69922 L 354.83789 432.69922 L 319.30078 382.33008 C 317.31041 379.44082 315.25551 376.29548 313.13672 372.89258 C 309.99064 378.02903 307.74285 381.56015 306.39453 383.48633 L 270.95312 432.69922 L 248.51367 432.69922 L 303.11914 359.11914 L 254.96484 291.51172 z "
       transform="scale(0.75)" />
  </g>
</svg>
